X: 1
T:Buddy's Jig
M:6/8
L:1/8
Q:112
C:Glenn Booth (glenn@fiddlebooth.com)
S:www.fiddlebooth.com
R:jig
K:GMaj
d | "G" BAG dBG | "C" AGE "D" D2 E |
"Em" GAB dge | "Bm"dBd "C"e2 e |
"D" def "G" gdB | "C" cde "G" d2 G |
"Am"  ABc BAG | "D" DFA "G" G2:|
FE | "D7" DED DEF |
"G" GBd dBd | "C" ece "G" dBd |
"D7" cAA FAE | "D7" DED DEF |
"G" GBd dBG | "Am" ABc BAG |
"D" DFA "G" G :|
